X:1
T:On Zion’s Glorious Summit
T:On Zion’s Glorious Summit
T:Robert Skene
T:John Kent (1766-1843)
T:Public Domain Courtesy of the Cyber Hymnal™
T:Public Domain Courtesy of the Cyber Hymnal™
C:Robert Skene
Z:Public Domain
Z:Courtesy of the Cyber Hymnal™
%%score ( 1 2 ) ( 3 4 )
L:1/8
Q:1/4=110
M:4/4
K:Ab
V:1 treble 
V:2 treble 
V:3 bass 
V:4 bass 
V:1
|: E2 | [EA]2 [EA]2 [EA]2 [EA]2 | [EG]3 [EB] [EA]2 [EB]2 | [Ec]2 [Ec]2 [Ec]2 [Ec]2 | %4
w: 1.~On|Zi- on’s glor- ious|sum- mit stood A|num- erous host re-|
w: 2.~Here|all who suf- fered|sword or flame For|truth, or Je- sus’|
w: 3.~While|ev- er- last- ing|ag- es roll, E-|ter- nal love shall|
 [EB]3 [Ed] [Ec]2 [Ge]2 | [Ae]2 [Ge]2 [Ae]2 [Ge]2 | [Ae]4 ([Bd]2 [Ac]2) | ([Ac]4 [GB]2) [Gd]2 | %8
w: deemed by blood! They|hymned their king in|strains di- *|vine; * I|
w: love- ly name, Shout|vic- tory now and|hail the *|Lamb, * And|
w: feast their soul, And|scenes of bliss, for|ev- er *|new, * Rise|
 [Ac]2 (de) [Af]2 (dB) | [EA]4 (c2 B2) | [EA]6!p! [EA]2 | [FA]3 [FA] [FA]2 [FA]2 | [EA]4 (c2 B2) | %13
w: heard the * song and *|strove to *|join, I|heard the song and|strove to *|
w: bow be- * fore the *|great I *|AM, And|bow be- fore the|great I *|
w: in suc- * ces- sion *|to their *|view, Rise|in suc- ces- sion|to their *|
 [EA]6"^Play 3 times" :| x8 |:"^Sanctus (after last verse)" [Ac]4 [EA]2 z2 | [Ge]4 [EG]2 z2 | %17
w: join.||||
w: AM.||Ho- ly,|ho- ly,|
w: view.||||
 [CA]4 [DF]4 | [CE]6 z2 | [EA]2 [Ac]2 [Ad]2 [Af]2 | [Ae]2 [EG]2 [EA]2 z2 |1 %21
w: ||||
w: ho- ly|Lord,|God of hosts, on|high a- dored!|
w: ||||
 [CE]2 [A,C]2 [FA]3 [EG] | [DF]2 [DF]2 [CE]4 | [EA]2 [Ac]2 [GB]2 [FB]2 | [GB]6 z2 :|2 %25
w: ||||
w: Who like me Thy|praise should sing,|O Al- might- y|King!|
w: ||||
 [FA]4 [EA]2 z2 || [FA]4 [EA]2 z2 | [FA]8 | !fermata![EA]8 |] %29
w: ||||
w: Ho- ly,|ho- ly,|ho-|ly.|
w: ||||
V:2
|: E2 | x8 | x8 | x8 | x8 | x8 | x8 | x8 | x2 A2 x F2 x | x4 E4 | x8 | x8 | x4 E4 | x6 :| x8 |: %15
 x8 | x8 | x8 | x8 | x8 | x8 |1 x8 | x8 | x8 | x8 :|2 x8 || x8 | x8 | x8 |] %29
V:3
|: E,2 | [A,C]2 [E,C]2 [C,C]2 [A,,C]2 | [E,B,]3 [E,D] [A,,C]2 [E,G,]2 | %3
 A,2 [E,A,]2 [C,A,]2 [A,,A,]2 | [E,G,]3 [E,B,] A,2 [E,B,]2 | [A,C]2 [E,B,]2 [A,C]2 [E,B,]2 | %6
 [A,C]4 E4 | [E,E]6 [E,B,]2 | A,2 (B,C) [D,D]2 [D,D]2 | [E,C]4 (E2 D2) | [A,C]6 [C,C]2 | %11
 [D,D]3 [D,D] [D,D]2 [D,D]2 | [E,C]4 (E2 D2) | [A,,C]6"^Play 3 times" :| x8 |: [A,E]4 [A,C]2 z2 | %16
 [E,B,]4 [E,B,]2 z2 | [F,A,]4 [D,A,]4 | [A,,A,]6 z2 | [A,C]2 [_G,E]2 [F,D]2 [D,D]2 | %20
 [E,C]2 [E,B,]2 [A,,C]2 z2 |1 z8 | z8 | [C,A,]2 [A,,E]2 [B,,E]2 [B,,=D]2 | [E,E]6 z2 :|2 %25
 [D,D]4 [A,,C]2 z2 || [D,D]4 [A,,C]2 z2 | [D,D]8 | !fermata![A,,C]8 |] %29
V:4
|: E,2 | x8 | x8 | A,2 x6 | x4 A,2 x2 | x8 | x4 (G,2 A,2) | x8 | A,2 A,2 x4 | x4 E,4 | x8 | x8 | %12
 x4 E,4 | x6 :| x8 |: x8 | x8 | x8 | x8 | x8 | x8 |1 x8 | x8 | x8 | x8 :|2 x8 || x8 | x8 | x8 |] %29

